svgs/duotone/truck-container.svg

<svg xmlns="http://www.w3.org/2000/svg" viewBox="0 0 640 512"><!-- Font Awesome Pro 6.0.0-alpha2 by @fontawesome - https://fontawesome.com License - https://fontawesome.com/license (Commercial License) --><defs><style>.fa-secondary{opacity:.4}</style></defs><path d="M528 352C492.654 352 464 380.652 464 416C464 451.346 492.654 480 528 480S592 451.346 592 416C592 380.652 563.346 352 528 352ZM80 352C44.654 352 16 380.652 16 416C16 451.346 44.654 480 80 480S144 451.346 144 416C144 380.652 115.346 352 80 352ZM240 352C204.654 352 176 380.652 176 416C176 451.346 204.654 480 240 480S304 451.346 304 416C304 380.652 275.346 352 240 352ZM96 96H64V256H96V96ZM176 96H144V256H176V96ZM256 96H224V256H256V96ZM304 256H336V96H304V256Z" class="fa-secondary"/><path d="M621.25 237.25L562.75 178.75C550.75 166.75 534.5 160.125 517.5 160.125H464C446.25 160.125 432 174.375 432 192.125V320H400V80C400 53.49 378.51 32 352 32H48C21.49 32 0 53.49 0 80V363.053C17.191 337.131 46.566 320 80 320S142.809 337.131 160 363.053C177.191 337.131 206.566 320 240 320C281.83 320 317.045 346.92 330.199 384.25H437.801C450.955 346.92 486.17 320 528 320C569.785 320 604.971 346.859 618.16 384.125H624C632.75 384.125 640 376.875 640 368.125V282.625C640 265.5 633.25 249.25 621.25 237.25ZM96 256H64V96H96V256ZM176 256H144V96H176V256ZM256 256H224V96H256V256ZM336 256H304V96H336V256ZM480 256V208H517.5C521.75 208 525.75 209.75 528.75 212.75L572.125 256H480Z" class="fa-primary"/></svg>

<svg xmlns="http://www.w3.org/2000/svg" viewBox="0 0 640 512"><!--! Font Awesome Pro 6.0.0-alpha3 by @fontawesome - https://fontawesome.com License - https://fontawesome.com/license (Commercial License) --><defs><style>.fa-secondary{opacity:.4}</style></defs><path class="fa-primary" d="M621.3 237.2l-58.5-58.49c-12-12-28.25-18.62-45.25-18.62H464c-17.75 0-32 14.25-32 31.1v127.9L400 320V79.99C400 53.48 378.5 32 352 32H48C21.49 32 0 53.48 0 79.99l0 283.1C17.19 337.1 46.57 320 80 320s62.81 17.13 80 43.05C177.2 337.1 206.6 320 240 320c41.83 0 77.04 26.92 90.2 64.25h107.6C450.1 346.9 486.2 320 528 320c41.79 0 76.97 26.86 90.16 64.13L624 384.1c8.75 0 16-7.247 16-15.1V282.6C640 265.5 633.3 249.2 621.3 237.2zM96 256H64V96h32V256zM176 256h-32V96h32V256zM256 256H224V96h32V256zM336 256h-32V96h32V256zM480 255.1V207.1h37.5c4.25 0 8.25 1.749 11.25 4.749l43.38 43.24L480 255.1z"/><path class="fa-secondary" d="M528 352c-35.35 0-64 28.65-64 64c0 35.35 28.65 64 64 64s64-28.65 64-64C592 380.7 563.3 352 528 352zM80 352c-35.35 0-64 28.65-64 64c0 35.35 28.65 64 64 64s64-28.65 64-64C144 380.7 115.3 352 80 352zM240 352c-35.35 0-64 28.65-64 64c0 35.35 28.65 64 64 64s64-28.65 64-64C304 380.7 275.3 352 240 352zM96 96H64v160h32V96zM176 96h-32v160h32V96zM256 96H224v160h32V96zM304 256h32V96h-32V256z"/></svg>
